X:1
T:How num’rous, Lord, of late are grown
T:Joseph Stephenson
T:p33, Church Harmony Sacred to Devotion, 4th ed. London: [c1763-1771]
T:This edition by Edmund Gooch released into the public domain, December 2010. As such, it may be freely copied and performed.
T:How num’rous, Lord, of late are grown
T:Ps. 3d. (A 4 Voce)
C:Joseph Stephenson
Z:p33, Church Harmony
Z:Sacred to Devotion, 4th ed.
Z:London: [c1763-1771]
%%score [ 1 2 3 4 ]
L:1/8
M:3/2
K:Eb
V:1 treble nm="Soprano" snm="S."
V:2 treble nm="Alto" snm="A."
V:3 treble-8 transpose=-12 nm="Tenor" snm="T."
V:4 bass nm="Bass" snm="B."
V:1
 E4 | (E6 F2) G4 | (B6 A2) G4 | c8 B4 | B8 B4 | (B6 c2) d4 | (c4 B4) =A4 | B8 G4 | F8 G4 | c8 B4 | %10
w: But|thou, _ O|Lord, _ art|my de-|fence; On|thee _ my|hopes _ re-|ly; Thou|art my|glo- ry,|
w: How|num- * ’rous,|Lord, _ of|late are|grown The|troub- * lers|of _ my|peace! And,|as their|num- bers|
w: In-|sult- * ing|they _ my|soul up-|braid, And|him _ whom|I _ ad-|ore; ‘The|God in|whom he|
 (=A6 B2) c4 | B8 B4 | (c4 B4) (A2 B2) | c4 (B6 A2) | G8 |] %15
w: and _ shalt|yet Lift|up _ my _|head on _|high.|
w: hour- * ly|rise, So|does _ their _|rage in- *|crease.|
w: trusts’, _ say|they, ‘Shall|res- * cue _|him no _|more’.|
V:2
 B,4 | B,8 E4 | D8 E4 | (G6 A2) F4 | G8 G4 | F8 F4 | G4 F8 | F8 E4 | C8 E4 | E8 G4 | F8 (F2 E2) | %11
w: But|thou, O|Lord, art|my _ de-|fence; On|thee my|hopes re-|ly; Thou|art my|glo- ry,|and shalt _|
w: How|num- ’rous,|Lord, of|late _ are|grown The|troub- lers|of my|peace! And,|as their|num- bers|hour- ly _|
w: In-|sult- ing|they my|soul _ up-|braid, And|him whom|I ad-|ore; ‘The|God in|whom he|trusts’, say _|
 D8 E4 | (E4 B,4) (C2 D2) | E8 D4 | E8 |] %15
w: yet Lift|up _ my _|head on|high.|
w: rise, So|does _ their _|rage in-|crease.|
w: they, ‘Shall|res- * cue _|him no|more’.|
V:3
 E4 | (G6 F2) E4 | B8 B4 | (e6 f2) d4 | e8 e4 | (f6 e2) d4 | e4 c8 | B8 B4 | A8 B4 | e8 e4 | %10
w: But|thou, _ O|Lord, art|my _ de-|fence; On|thee _ my|hopes re-|ly; Thou|art my|glo- ry,|
w: How|num- * ’rous,|Lord, of|late _ are|grown The|troub- * lers|of my|peace! And,|as their|num- bers|
w: In-|sult- * ing|they my|soul _ up-|braid, And|him _ whom|I ad-|ore; ‘The|God in|whom he|
 (c6 B2) (A2 G2) | F8 E4 | (e6 d2) (c2 B2) | (A2 G2) TF8 | E8 |] %15
w: and _ shalt _|yet Lift|up _ my _|head _ on|high.|
w: hour- * ly _|rise, So|does _ their _|rage _ in-|crease.|
w: trusts’, _ say _|they, ‘Shall|res- * cue _|him _ no|more’.|
V:4
 E,4 | (E,6 D,2) C,4 | B,,8 E,4 | (C,6 A,,2) B,,4 | E,8 E,4 | (D,6 C,2) B,,4 | E,4 F,8 | B,,8 E,4 | %8
w: But|thou, _ O|Lord, art|my _ de-|fence; On|thee _ my|hopes re-|ly; Thou|
w: How|num- * ’rous,|Lord, of|late _ are|grown The|troub- * lers|of my|peace! And,|
w: In-|sult- * ing|they my|soul _ up-|braid, And|him _ whom|I ad-|ore; ‘The|
"^Emendations: The alto part is given in alto clef in the source: the tenor A on the third beat of bar 10 has no accidental in the source. The only indications of the text in the source are the title 'Ps. 3d.' and the opening words'How numerous Ld': verses 1-5 of the text have been underlaid editorially." F,8 E,4 | %9
w: art my|
w: as their|
w: God in|
 (C,6 D,2) E,4 | F,8 F,,4 | B,,8 B,4 | (A,4 G,4) (A,2 G,2) | (F,2 E,2) B,,8 | E,8 |] %15
w: glo- * ry,|and shalt|yet Lift|up _ my _|head _ on|high.|
w: num- * bers|hour- ly|rise, So|does _ their _|rage _ in-|crease.|
w: whom _ he|trusts’, say|they, ‘Shall|res- * cue _|him _ no|more’.|

